X: 125
T: Miss Mary Jean Home's Strathspey
%C:
R: strathspey
Q: "Slow"
B: William Shepherd "1st Collection" 1793 p.12 #5
F: http://imslp.org/wiki/File:PMLP73094-Shepherd_Collections_HMT.pdf
C: William Shepherd (17??-1812)
Z: 2012 John Chambers <jc:trillian.mit.edu>
M: C
L: 1/16
K: Am
B2 |\
Tc3BA3e E3EA4 | Tc3BA2B2 G3B (ed).c.B |\
c3BA3e E3E~A4 | C3E DEFD C2A,2A,2 :|
e2 |\
a3ec3a A3a {f}e2dc | B2g2-g2d2 B2dc {c}B2A^G |\
a3ec3a A3a {f}e2dc | d2{e}f2e2E2 A2E2A,2 ||
e2 |\
a3ec3a A2a2 {f}e2dc | B2g2-g2d2 B2dc {c}B2A^G |\
A3Ec3A d3BE3C | B,3G {E}D2CB, C3A,A,2 |]
